!!!OTL: 1595. Handwerksburschenlied.
!!!ARE: Europa, Mitteleuropa, Deutschland
!!!SCT: E1595
!!!TXL: @@DE
!!!YEM: Copyright 1995, estate of Helmut Schaffrath.
**kern	**text
*ICvox	*
*M3/8	*
*met(3)	*
*k[f#]	*
*G:	*
!LO:TX:a:t=Kretʒſchmer I. 247.	!
{8d	Jetʒt
=1	=1
8d	rei-
8g	-ſen
8g	wir
=2	=2
[8g	Brü-
8g]	-der
8b	wol
=3	=3
(<8b	al-
8a)	-le
8a	ʒu
=4	=4
4b}	gleich,
{16aL	hin
16bJ	.
=5	=5
4cc	durch
8b	das
=6	=6
[8a	ſchö-
8a]	-ne
8g	Land
=7	=7
8b	Sach-
8a	-ſen,
8r	.
=8	=8
4r}	.
{8d	Nach
=9	=9
8d	Leip-
8g	-ʒig,
8g	nach
=10	=10
[8g	Un-
8g]	-garn
8b	und
=11	=11
(<8b	nach
8a)	.
8a	Braunſchweig,
=12	=12
4b}	.
{16aL	wo
16bJ	die
=13	=13
4cc	ſchö-
8b	-nen
=14	=14
[8a	Mä-
8a]	.
8g	-del
=15	=15
8b	wach-
8a	-ſen.
8r	.
=16	=16
4r}	.
{8b	Von
=17	=17
4cc	da
8b	wolln
=18	=18
4a	wir
8b	nach
=19	=19
8cc	Schle-
8cc	-ſi-
8b	-en
=20	=20
4a}	ʒiehn,
{8b	nach
=21	=21
4g	Bres-
8f#	-lau,
=22	=22
4g	Böh-
8b	-men,
=23	=23
4b	Prag
8a	und
=24	=24
4b}	Wien,
{8dd	die
=25	=25
8ccL	ſchö-
8bJ	.
8a	-ne
=26	=26
4b	Stadt
8g	ʒu
=27	=27
8a	ſeh-
8g	-en.
8r	.
=28	=28
4r}	.
==	==
!!!AGN: Staende -, Handwerker -, Gesellen - Lied; Wanderschaft
!!!ONB: ESAC (Essen Associative Code) Database: ERK3
!!!AMT: simple triple
!!!AIN: vox
!!!EED: Helmut Schaffrath
!!!EEV: 1.0
!!!GTL: Staendelieder (Berufslieder). 8. Handwerkerlieder.
!!!URL-scan: https://rosdok.uni-rostock.de/mcrviewer/recordIdentifier/rosdok_ppn745177999/iview2/phys_0423.iview2?x=-449.8344612962892&y=1433.7899830471724&scale=0.47549036216460333&rotation=0&layout=singlePageLayout
!!!ENC: Anna Maria Matuszewska
!!!EEV: 2025/08/01
*-	*-
